source/images/icons/icon-utility/settings.svg

<?xml version="1.0" encoding="UTF-8"?>
<svg width="24px" height="24px" viewBox="0 0 24 24" version="1.1" xmlns="http://www.w3.org/2000/svg" xmlns:xlink="http://www.w3.org/1999/xlink">
    <!-- Generator: Sketch 55.2 (78181) - https://sketchapp.com -->
    <title>Icons/24px/Settings</title>
    <desc>Created with Sketch.</desc>
    <g id="Icons/24px/Settings" stroke="none" stroke-width="1" fill="none" fill-rule="evenodd">
        <path d="M19,17 L17,17 C16.4477153,17 16,16.5522847 16,16 C16,15.4477153 16.4477153,15 17,15 L23,15 C23.5522847,15 24,15.4477153 24,16 C24,16.5522847 23.5522847,17 23,17 L21,17 L21,21 C21,21.5522847 20.5522847,22 20,22 C19.4477153,22 19,21.5522847 19,21 L19,17 Z M11,7 L11,3 C11,2.44771525 11.4477153,2 12,2 C12.5522847,2 13,2.44771525 13,3 L13,7 L15,7 C15.5522847,7 16,7.44771525 16,8 C16,8.55228475 15.5522847,9 15,9 L9,9 C8.44771525,9 8,8.55228475 8,8 C8,7.44771525 8.44771525,7 9,7 L11,7 Z M3,15 L1,15 C0.44771525,15 0,14.5522847 0,14 C0,13.4477153 0.44771525,13 1,13 L7,13 C7.55228475,13 8,13.4477153 8,14 C8,14.5522847 7.55228475,15 7,15 L5,15 L5,21 C5,21.5522847 4.55228475,22 4,22 C3.44771525,22 3,21.5522847 3,21 L3,15 Z M5,10 C5,10.5522847 4.55228475,11 4,11 C3.44771525,11 3,10.5522847 3,10 L3,3 C3,2.44771525 3.44771525,2 4,2 C4.55228475,2 5,2.44771525 5,3 L5,10 Z M13,21 C13,21.5522847 12.5522847,22 12,22 C11.4477153,22 11,21.5522847 11,21 L11,12 C11,11.4477153 11.4477153,11 12,11 C12.5522847,11 13,11.4477153 13,12 L13,21 Z M21,12 C21,12.5522847 20.5522847,13 20,13 C19.4477153,13 19,12.5522847 19,12 L19,3 C19,2.44771525 19.4477153,2 20,2 C20.5522847,2 21,2.44771525 21,3 L21,12 Z" id="Icon" fill="#ADB5BD"></path>
    </g>
</svg>

<svg width="24" height="24">
    <title>
        Icons/24px/Settings
    </title>
    <path d="M19 17h-2a1 1 0 0 1 0-2h6a1 1 0 0 1 0 2h-2v4a1 1 0 0 1-2 0v-4zM11 7V3a1 1 0 0 1 2 0v4h2a1 1 0 0 1 0 2H9a1 1 0 1 1 0-2h2zm-8 8H1a1 1 0 0 1 0-2h6a1 1 0 0 1 0 2H5v6a1 1 0 0 1-2 0v-6zm2-5a1 1 0 0 1-2 0V3a1 1 0 1 1 2 0v7zm8 11a1 1 0 0 1-2 0v-9a1 1 0 0 1 2 0v9zm8-9a1 1 0 0 1-2 0V3a1 1 0 0 1 2 0v9z" fill="#ADB5BD" fill-rule="evenodd"/>
</svg>
